X:1
T:Lusinghiero desio
T:Horatio Vecchi
T:Source : Canzonette a tre voci di H.Vecchi et di G.Capi Lupi da Modona---Venetia---Ang.Gardano---1597. Editor : André Vierendeels (12/02/17).
T:Notes : Original clefs : G2, C1, F3 Editorial accidentals above the staff Lute accompaniment not included in this edition
T:Lusinghiero desio
T:©
T:©
C:Horatio Vecchi
Z:©
%%score [ 1 2 3 ]
L:1/8
Q:1/4=101
M:2/2
K:F
V:1 treble nm="Soprano 1" snm="S 1"
V:2 treble nm="Soprano 2" snm="S 2"
V:3 treble-8 nm="Tenor" snm="T"
V:1
 d6 d2 | d4 c2 B2 | A2 A2 A2 B2 | c2 cc c2 d2 | _e8 | d2 f2 fefg | f4 f2 B2 | BABc d2 d2 | %8
w: Lu- sin-|ghie- ro de-|sio che da begl'|oc- chi, de la mia|Do-|na à me ve- lo- ce|vo- li, à|me ve- lo- ce vo- li'à|
w: Fin- to|sguar- do gen-|til che dai be'|lu- mi, de la mi'a-|ma-|t'à me con gi- o- ia|vie- ni, me|con gi- o- ia vie- ni,|
 dcde d3 e | fd g4 ^f2 |[M:2/4] g4 ::[M:2/2] z2 d2 B4 | c4 d2 d2 | c3 c c2 B2 | A4 A2 d2 | B4 c4 | %16
w: me ve- lo- ce vo- *||li,|ri- tor-|na pur in|quei ter- res- tri|so- li, ri-|tor- na|
w: con gi- o- ia vie- *||ni,|ri- tor-|n'à lei che|son que- sti'ha- mi'e|fre- ni, ro-|tor- n'à|
 d4 z2 A2 | c3 c c2 B2 | A4 !fermata!=B4 :| %19
w: pur in|quei ter- res- tri|so- li.|
w: lei che|son que- sti'ha- mi'e|fre- ni.|
V:2
 B6 B2 | B4 A2 G2 | ^F2 F2 F2 G2 | A2 AA A2 B2- | B2 AG A4 | B4 z2 d2 | dcde d4 | d2 d2 BABc | %8
w: Lu- sin-|ghie- ro de-|sio che da begl'|oc- chi, de la mia|Don- * * *|na, à|me ve- lo- ce vo-|li, à me ve- lo- ce|
w: Ca- ra'e|dol- ce'har- mo-|nia che dal bel|pet- to, de la mia|di- * * *|va, à|me ve- nir t'af- fret-|ti, à me ve- nir t'af-|
 B6 AG | A8 |[M:2/4] G4 ::[M:2/2] z2 ^F2 G4 | A4 B2 B2 | A3 A A2 G2 |"^-natural" ^F4 F2 F2 | %15
w: vo- * *||li,|ri- tor-|na pur in|quei ter- res- tri|so- li, ri-|
w: fret- * *||ti,|ri- tor-|n'à lei che|trop- po tu m'al-|let- ti, ri-|
 G4 A4 | B2 B2 A3 A | A2 G2 ^F2 G2- | G2 ^F2 !fermata!G4 :| %19
w: tor- na|pur, in quei ter-|res- tri so- *|* * li.|
w: tor- n'à|lei, che trop- po|m'al- let- * *|* * ti.|
V:3
 G6 G2 | B4 c2 c2 | d2 D2 D2 G2 | F2 FF F2 D2 | C8 | B,4 z2 B2 | BABc B4 | B2 G2 GFGA | G6 FE | %9
w: Lu- sin-|ghie- ro de-|sio che da begl'|oc- chi, de la mia|Don-|na, à|me ve- lo- ce vo-|li, à me ve- lo- ce|vo- * *|
w: Pa- ro-|let- te so-|a- vi'hor vi fer-|ma- te, per- che mia|mor-|te i|cre- de- ro che si-|a, i cre- de- ro che|si- * *|
 D2 C2 D4 |[M:2/4] G4 ::[M:2/2] z2 d2 _e4 | c4 B2 B2 | F3 F F2 G2 | D4 D2 d2 | _e4 c4 | %16
w: |li,|ri- tor-|na pur in|quei ter- res- tri|so- li, ri-|tor- na|
w: |a,|de- sio,|guar- do, pa-|ro- le, ed har-|mo- nia, de-|sio, guar-|
 B2 B,2 F3 F | F2 _E2 D4- | D4 !fermata!G4 :| %19
w: pur, in quei ter-|res- tri so-|* li.|
w: do, pa- ro- le,|ed har- mo-|* nia.|

